X: 2224
T: JUDY'S REEL
R: Reel.
%R: reel
B: James Kerr "Merry Melodies" v.2 p.25 #224
Z: 2016 John Chambers <jc:trillian.mit.edu>
N: The A in bar 9 is probably a typo, and should be G.
M: C
L: 1/8
K: D
uD2 |\
FAAB AFED | FAAB ABde |\
(fB)BA Bcde | (fB)BA BcdA |\
FAAB AFED | FAAB ABde |\
(fB)BA BcdB | (AF)EF D2 :|
|: ug2 |\
fgab agde | fdad bdfd |\
efga beef | (3(gfe) (be) gfeg |\
fgaf bfaf | defd efde |\
(fB)BA BcdB | (AF)EF D2 :|
